!!!!SEGMENT: pl-wtm--r-909-m--001-002_moniuszko-stanislaw--witolorauda-2.krn
!!!cenid: 18xx:2864
!!!COM: Moniuszko, Stanisław
!!!COM-rismID: pe30008351
!!!CDT: 1819/05/05-1872/06/04
!!!CNT: Polish
!!!GTL: Witolorauda
!!!OTL: 2.
!!!OMV: 002
!!!PDT: 1893
!!!AGN:
!!!YEC: Copyright 2022 Narodowy Instytut Fryderyka Chopina (https://polishscores.org)
!!!YEM: License CC-BY-4.0 (https://creativecommons.org/licenses/by/4.0)
!!!SMS-siglum: PL-Wtm
!!!SMS-shelfmark: R 909/M
!!!SMS-shelfwork: 001-002 G
!!!SMS-variant:
!!!SMS-altvar:
!!!NIFC-rismSourceID: 1001099305
!!!NIFC-rismChildID: 1001099305
!!!NIFC-islandoraID:
!!!URL-pdf-islandora:
!!!URL-scan:
!!!IIIF:
!!!ONB-nifc: UWAGA: numeracja plików 001-005 zgodna z numeracją Raud w źródle
!!!AIN: 1 cello 2 clars 1 cor 2 empty 1 fagot 1 flt 1 oboe 1 tromp 2 tromt 1 viola 2 violn 1 vox
!!!key:
**kern	**kern	**kern	**dynam	**kern	**text	**text	**dynam	**kern	**kern	**kern	**kern	**kern	**dynam	**kern	**dynam	**kern	**dynam	**kern	**dynam	**kern	**kern	**kern	**kern	**kern
*part16	*part15	*part14	*	*part14	*	*	*	*part13	*part12	*part11	*part10	*part9	*	*part8	*	*part7	*	*part6	*	*part5	*part4	*part3	*part2	*part1
*staff17	*staff16	*staff15	*	*staff14	*	*	*	*staff13	*staff12	*staff11	*staff10	*staff9	*	*staff8	*	*staff7	*	*staff6	*	*staff5	*staff4	*staff3	*staff2	*staff1
*Iempty	*Icello	*Ivox	*	*Ivox	*	*	*	*Iviola	*Ivioln	*Ivioln	*Iempty	*Itromt	*	*Itromt	*	*Itromp	*	*Icor	*	*Ifagot	*Iclars	*Iclars	*Ioboe	*Iflt
*I"Baſso	*I"Cello	*I"Chór	*	*I"Chór	*	*	*	*I"Viola	*I"Violino II	*I"Violino I	*I"Cassa	*I"Trombon 3	*	*I"Tromboni 1/2	*	*I"Trombi 1/2 F	*	*I"Corno 1/2 F	*	*I"Fagotti	*I"Clarinetto 2	*I"Clarinetto I	*I"Oboa	*I"Flauto
*I'cb	*I'vlc	*I'coro	*	*I'coro	*	*	*	*I'vla	*I'vl 2	*I'vl 1	*I'cassa	*I'trb 3	*	*I'trb 1 and 2	*	*I'tr 1 and 2	*	*I'cor 1 and 2	*	*I'fag	*I'cl 2	*I'cl 1	*I'ob	*I'fl
*clefF4	*clefF4	*clefF4	*	*clefG2	*	*	*	*clefC3	*clefG2	*clefG2	*clefF4	*clefF4	*	*clefF4	*	*clefG2	*	*clefG2	*	*clefF4	*clefG2	*clefG2	*clefG2	*clefG2
*ITrd0c0	*	*	*	*	*	*	*	*	*	*	*	*	*	*	*	*ITrd-3c-5	*	*ITrd4c7	*	*	*ITrd1c2	*ITrd1c2	*	*
*k[b-e-]	*k[b-e-]	*k[b-e-]	*	*k[b-e-]	*	*	*	*k[b-e-]	*k[b-e-]	*k[b-e-]	*k[b-e-]	*k[b-e-]	*	*k[b-e-]	*	*k[b-e-]	*	*k[b-e-]	*	*k[b-e-]	*k[b-e-]	*k[b-e-]	*k[b-e-]	*k[b-e-]
*B-:	*B-:	*B-:	*	*B-:	*	*	*	*B-:	*B-:	*B-:	*B-:	*B-:	*	*B-:	*	*B-:	*	*B-:	*	*B-:	*B-:	*B-:	*B-:	*B-:
*M4/4	*M4/4	*M4/4	*	*M4/4	*	*	*	*M4/4	*M4/4	*M4/4	*M4/4	*M4/4	*	*M4/4	*	*M4/4	*	*M4/4	*	*M4/4	*M4/4	*M4/4	*M4/4	*M4/4
*met(c)	*met(c)	*met(c)	*	*met(c)	*	*	*	*met(c)	*met(c)	*met(c)	*met(c)	*met(c)	*	*met(c)	*	*met(c)	*	*met(c)	*	*met(c)	*met(c)	*met(c)	*met(c)	*met(c)
*>[A,A]	*>[A,A]	*>[A,A]	*	*>[A,A]	*	*	*	*>[A,A]	*>[A,A]	*>[A,A]	*>[A,A]	*>[A,A]	*	*>[A,A]	*	*>[A,A]	*	*>[A,A]	*	*>[A,A]	*>[A,A]	*>[A,A]	*>[A,A]	*>[A,A]
*>A	*>A	*>A	*	*>A	*	*	*	*>A	*>A	*>A	*>A	*>A	*	*>A	*	*>A	*	*>A	*	*>A	*>A	*>A	*>A	*>A
!	!	!LO:TX:a:t=P:problem=w źródle tylko jednokrotna nazwa partii - "Chór", zapisana przed dwoma pięcioliniami partii chóru	!	!	!	!	!	!	!	!	!	!	!	!	!	!	!	!	!	!	!	!	!	!LO:TX:a:t=Maestoso
!	!	!	!	!	!	!	!	!	!	!LO:TX:a:t=Maestoso.	!	!	!	!LO:TX:a:t=à dué	!	!	!	!	!	!	!	!	!	!LO:TX:a:B::t=Rauda 2ga
!	!	!	!	!	!	!	!	!	!	!	!	!	!	!	!	!	!	!	!	!	!	!	!	!LO:TX:a:i:t=N 2:color=red
!	!	!	!	!	!	!	!	!	!	!	!	!	!LO:DY:rj:t=fo	!	!LO:DY:rj	!	!	!	!	!	!	!	!	!LO:TX:a:i:t=N 6:color=grey
8r	8r	8r	.	8r	.	.	.	8r	8r	8r	4ryy	8.GG/L	f	8.G\L	f	8r	.	8r	.	8r	8r	8r	8r	8r
8r	8r	8r	.	8r	.	.	.	8r	8r	8r	.	.	.	.	.	8r	.	8r	.	8r	8r	8r	8r	8r
.	.	.	.	.	.	.	.	.	.	.	.	16FF/Jk	.	16F\Jk	.	.	.	.	.	.	.	.	.	.
=1	=1	=1	=1	=1	=1	=1	=1	=1	=1	=1	=1	=1	=1	=1	=1	=1	=1	=1	=1	=1	=1	=1	=1	=1
*	*	*	*	*	*	*	*	*	*	*	*	*	*	*2\right	*	*	*	*	*	*	*	*	*	*
2.r;>	2.r;>	2.r;>	.	2.r;>	.	.	.	2.r;>	2.r;>	2.r;>	2.r;>	2.FF;>/	.	2.F;>\	.	2.r;>	.	2.r;>	.	2.r;>	2.r;>	2.r;>	2.r;>	2.r;>
4r	4r	4r	.	4r	.	.	.	4r	4r	4r	4r	8.GG/L	.	8.G\L	.	4r	.	4r	.	4r	4r	4r	4r	4r
.	.	.	.	.	.	.	.	.	.	.	.	16FF/Jk	.	16F\Jk	.	.	.	.	.	.	.	.	.	.
!!LO:PB:g=original
=2	=2	=2	=2	=2	=2	=2	=2	=2	=2	=2	=2	=2	=2	=2	=2	=2	=2	=2	=2	=2	=2	=2	=2	=2
*	*	*2\right	*	*2\right	*	*	*	*	*	*	*	*	*	*	*	*	*	*	*	*	*	*	*	*
!	!	!	!LO:HP:a	!	!	!	!LO:HP:a	!	!	!	!	!	!	!	!	!	!	!	!	!	!	!	!	!
!	!	!	!LO:DY:b:rj:t=fo	!	!	!	!LO:DY:a:rj	!	!	!	!	!	!	!	!	!LO:TX:a:t=à dué	!LO:DY:rj:t=fo	!	!	!	!	!	!	!
1ryy	1ryy	2F\	f >	2ff\	Po-	Rzu-	f >	1ryy	1ryy	1ryy	1ryy	2FF/	.	2A 2F\	.	2c/	f	2f 2e-X\	.	1ryy	1ryy	1ryy	1ryy	1ryy
.	.	4B-\	]	4dd\	-szedł	-cam	]	.	.	.	.	4BB-/	.	4B- 4F\	.	4d/	.	4f 4d\	.	.	.	.	.	.
.	.	8.r	.	8.r	.	.	.	.	.	.	.	8.GG/L	.	8.G\L	.	4r	.	4r	.	.	.	.	.	.
!	!	!	!	!LO:N:vis=8	!	!	!	!	!	!	!	!	!	!	!	!	!	!	!	!	!	!	!	!
.	.	16F\	.	16ff\	gdzie	ci	.	.	.	.	.	16FF/Jk	.	16F\Jk	.	.	.	.	.	.	.	.	.	.
=3	=3	=3	=3	=3	=3	=3	=3	=3	=3	=3	=3	=3	=3	=3	=3	=3	=3	=3	=3	=3	=3	=3	=3	=3
!	!	!	!LO:HP:a	!	!	!	!LO:HP:a	!	!	!	!	!	!	!	!	!	!	!	!	!	!	!	!	!
1ryy	1ryy	2F\	>	2ff\	cie-	na	>	1ryy	1ryy	1ryy	1ryy	2FF/	.	2A 2F\	.	2c/	.	2f 2e-X\	.	1ryy	1ryy	1ryy	1ryy	1ryy
.	.	4B-\	]	4dd\	-nie	stos	]	.	.	.	.	4BB-/	.	4B- 4F\	.	4d/	.	4d/	.	.	.	.	.	.
.	.	4r	.	4r	.	.	.	.	.	.	.	4DD/	.	4B- 4F\	.	4d/	.	4d/	.	.	.	.	.	.
=4	=4	=4	=4	=4	=4	=4	=4	=4	=4	=4	=4	=4	=4	=4	=4	=4	=4	=4	=4	=4	=4	=4	=4	=4
!	!	!	!LO:DY:b:rj	!	!	!	!LO:DY:a	!	!	!	!	!	!	!	!LO:DY:rj	!	!	!	!LO:DY:b:rj	!	!	!	!	!
1ryy	1ryy	2G 2E-\	p	2dd 2b-\	oj-	ry-	p	1ryy	1ryy	1ryy	1ryy	2EE-/	.	2G 2BB-\	p	2g/	.	2d 2B-/	p	1ryy	1ryy	1ryy	1ryy	1ryy
.	.	4..F\	.	4..dd 4..a\	-ców	-sie	.	.	.	.	.	2FF/	.	2F\	.	2a/	.	4..d 4..A/	.	.	.	.	.	.
.	.	16F\	.	16dd 16a\	wo-	pa-	.	.	.	.	.	.	.	.	.	.	.	16d 16A/	.	.	.	.	.	.
=5	=5	=5	=5	=5	=5	=5	=5	=5	=5	=5	=5	=5	=5	=5	=5	=5	=5	=5	=5	=5	=5	=5	=5	=5
*	*	*	*	*	*	*	*	*	*	*	*	*	*	*^	*	*	*	*	*	*	*	*	*	*
1ryy	1ryy	2F 2BB-\	.	2dd 2b-\	-ła-	-zu-	.	1ryy	1ryy	1ryy	1ryy	2.BB-/	.	2F 2BB-\	2ryy	.	2b-/	.	2d 2B-/	.	1ryy	1ryy	1ryy	1ryy	1ryy
.	.	4D 4BB-\	.	4b- 4f\	-ły	-ry	.	.	.	.	.	.	.	2r	4D\	.	4f/	.	4B- 4F/	.	.	.	.	.	.
.	.	4r	.	4r	.	.	.	.	.	.	.	8.GG/L	.	.	8.G\L	.	4r	.	4r	.	.	.	.	.	.
.	.	.	.	.	.	.	.	.	.	.	.	16FF/Jk	.	.	16F\Jk	.	.	.	.	.	.	.	.	.	.
=6	=6	=6	=6	=6	=6	=6	=6	=6	=6	=6	=6	=6	=6	=6	=6	=6	=6	=6	=6	=6	=6	=6	=6	=6	=6
1ryy	1ryy	4.F\	.	4.ff 4.f\	dla	I	.	1ryy	1ryy	1ryy	1ryy	2FF/	.	2A 2F\	2ryy	.	2c/	.	2f 2e-X\	.	1ryy	1ryy	1ryy	1ryy	1ryy
.	.	8F\	.	8ff 8f\	wie-	ja-	.	.	.	.	.	.	.	.	.	.	.	.	.	.	.	.	.	.	.
.	.	4B- 4BB-\	.	4dd 4b-\	-cznoś-	-strzę-	.	.	.	.	.	4BB-/	.	4B- 4F\	4ryy	.	4d/	.	4d/	.	.	.	.	.	.
.	.	4G\	.	4b-\	-ci	-bie	.	.	.	.	.	8.GG/L	.	4r	8.G\L	.	4r	.	4B-/	.	.	.	.	.	.
.	.	.	.	.	.	.	.	.	.	.	.	16FF/Jk	.	.	16F\Jk	.	.	.	.	.	.	.	.	.	.
*	*	*	*	*	*	*	*	*	*	*	*	*	*	*v	*v	*	*	*	*	*	*	*	*	*	*
=7	=7	=7	=7	=7	=7	=7	=7	=7	=7	=7	=7	=7	=7	=7	=7	=7	=7	=7	=7	=7	=7	=7	=7	=7
*	*	*	*	*^	*	*	*	*	*	*	*	*	*	*	*	*	*	*	*	*	*	*	*	*
1ryy	1ryy	(>2F\	.	(>2cc/	2a\	gó-	or-	.	1ryy	1ryy	1ryy	1ryy	2FF/	.	2A 2F\	.	1ryy	.	2c/	.	1ryy	1ryy	1ryy	1ryy	1ryy
.	.	4B-\)	.	4dd/)	2b-\	.	.	.	.	.	.	.	4BB-/	.	4B- 4F\	.	.	.	4d/	.	.	.	.	.	.
.	.	4d 4G\	.	4een/	.	-ry	-le	.	.	.	.	.	4GG/	.	4d 4B-\	.	.	.	4e/	.	.	.	.	.	.
*	*	*	*	*v	*v	*	*	*	*	*	*	*	*	*	*	*	*	*	*	*	*	*	*	*	*
!!LO:PB:g=original
=8	=8	=8	=8	=8	=8	=8	=8	=8	=8	=8	=8	=8	=8	=8	=8	=8	=8	=8	=8	=8	=8	=8	=8	=8
*	*	*	*	*	*	*	*	*	*	*	*	*	*	*	*	*^	*	*^	*	*	*	*	*	*
*	*	*	*	*	*	*	*	*	*	*	*	*	*	*	*	*	*	*	*	*2\right	*	*	*	*	*	*
!	!	!	!	!	!	!	!	!	!	!	!	!	!	!	!	!LO:TX:a:t=1mo	!	!	!	!	!	!	!	!	!	!
1ryy	1ryy	(>2c#X (<2A\	.	(>2een (<2a\	wschod-	szpo-	.	1ryy	1ryy	1ryy	1ryy	2AA/	.	2c#X 2A\	.	2a/	1re	.	1e	2e\	.	1ryy	1ryy	1ryy	1ryy	1ryy
.	.	2d 2En\))	.	2dd 2g#X\))	.	.	.	.	.	.	.	2EEn/	.	2Bn 2G#X\	.	2bX/	.	.	.	2d\	.	.	.	.	.	.
*	*	*	*	*	*	*	*	*	*	*	*	*	*	*	*	*v	*v	*	*	*	*	*	*	*	*	*
=9	=9	=9	=9	=9	=9	=9	=9	=9	=9	=9	=9	=9	=9	=9	=9	=9	=9	=9	=9	=9	=9	=9	=9	=9	=9
*	*	*	*	*	*	*	*	*	*	*	*	*	*	*^	*	*	*	*	*	*	*	*	*	*	*
1ryy	1ryy	2.A\	.	2.cc#X 2.a\	-nie	ny	.	1ryy	1ryy	1ryy	1ryy	2.AA/	.	2.A/	2.A\	.	2.a/	.	2.e/	2c#X\	.	1ryy	1ryy	1ryy	1ryy	1ryy
.	.	.	.	.	.	.	.	.	.	.	.	.	.	.	.	.	.	.	.	2rb	.	.	.	.	.	.
.	.	4r	.	4r	.	.	.	.	.	.	.	4r	.	4r	4ryy	.	4r	.	4r	.	.	.	.	.	.	.
*	*	*	*	*	*	*	*	*	*	*	*	*	*	*	*	*	*	*	*v	*v	*	*	*	*	*	*
=10	=10	=10	=10	=10	=10	=10	=10	=10	=10	=10	=10	=10	=10	=10	=10	=10	=10	=10	=10	=10	=10	=10	=10	=10	=10
1ryy	1ryy	4B-\	.	4b-\	Pu-	Nie	.	1ryy	1ryy	1ryy	1ryy	4BB-/	.	4B-/	4B-\	.	2r	.	2r	.	1ryy	1ryy	1ryy	1ryy	1ryy
.	.	8.A\	.	8.a/	-szczać	mi	.	.	.	.	.	8.AA/L	.	8.A/L	8.A\L	.	.	.	.	.	.	.	.	.	.
.	.	16G\	.	16g/	na	się	.	.	.	.	.	16GG/Jk	.	16G/Jk	16G\Jk	.	.	.	.	.	.	.	.	.	.
.	.	4d\	.	4dd\	Jod-	wdra-	.	.	.	.	.	4D\	.	4d 4D\	2ryy	.	4r	.	4r	.	.	.	.	.	.
!	!	!	!	!	!	!	!	!	!	!	!	!	!LO:DY:rj:t=fo	!	!	!	!	!LO:DY:b:rj:t=fo	!	!LO:DY:b:rj:t=fo	!	!	!	!	!
.	.	8c#X\	.	8cc#X\	-sów	-piesz	.	.	.	.	.	8AA/	f	8c#X 8En\	.	.	4eeny 4cc#X\	f	4a 4eny\	f	.	.	.	.	.
.	.	8r	.	8r	.	.	.	.	.	.	.	8r	.	8r	.	.	.	.	.	.	.	.	.	.	.
*	*	*	*	*	*	*	*	*	*	*	*	*	*	*v	*v	*	*	*	*	*	*	*	*	*	*
=11	=11	=11	=11	=11	=11	=11	=11	=11	=11	=11	=11	=11	=11	=11	=11	=11	=11	=11	=11	=11	=11	=11	=11	=11
*	*	*	*	*	*	*	*	*	*	*	*	*rep	*	*	*	*	*	*	*	*	*	*	*	*
1ryy	1ryy	4B-\	.	4b-\	za-	na	.	1ryy	1ryy	1ryy	1ryy	4BB-/	.	4B-\	.	2r	.	2r	.	1ryy	1ryy	1ryy	1ryy	1ryy
.	.	8.A\	.	8.a/	-tru-	stro-	.	.	.	.	.	8.AA/L	.	8.A\L	.	.	.	.	.	.	.	.	.	.
.	.	16G\	.	16g/	-te	-mi	.	.	.	.	.	16GG/Jk	.	16G\Jk	.	.	.	.	.	.	.	.	.	.
.	.	4d\	.	4dd\	strza-	gó-	.	.	.	.	.	4D\	.	4d 4D\	.	4r	.	4r	.	.	.	.	.	.
!	!	!	!	!	!	!	!	!	!	!	!	!	!LO:DY:rj:t=fo	!LO:SIC:v:s=En	!	!	!	!	!	!	!	!	!	!
.	.	8c#X\	.	8cc#X\	-ły	-ry	.	.	.	.	.	8AA/	f	8c#X 8E-\	.	4ee- 4cc#X\	.	4a 4e-\	.	.	.	.	.	.
.	.	8r	.	8r	.	.	.	.	.	.	.	8r	.	8r	.	.	.	.	.	.	.	.	.	.
*	*	*	*	*	*	*	*	*	*	*	*	*Xrep	*	*	*	*	*	*	*	*	*	*	*	*
=12	=12	=12	=12	=12	=12	=12	=12	=12	=12	=12	=12	=12	=12	=12	=12	=12	=12	=12	=12	=12	=12	=12	=12	=12
!	!	!	!	!	!	!	!	!	!	!	!	!	!	!	!	!LO:TX:a:t=à dué	!	!LO:TX:a:t=à dué	!	!	!	!	!	!
1ryy	1ryy	8.D\	.	8.dd\	Pić	Przej-	.	1ryy	1ryy	1ryy	1ryy	8.D\L	.	8.D\L	.	8.ff\L	.	8.f/L	.	1ryy	1ryy	1ryy	1ryy	1ryy
!	!	!LO:SIC:v:s=En	!	!LO:SIC:v:s=een	!	!	!	!	!	!	!	!	!	!	!	!	!	!	!	!	!	!	!	!
.	.	16E-\	.	16ee-\	z oj-	-dziesz	.	.	.	.	.	16En\Jk	.	16En\Jk	.	16eeny\K	.	16e/Jk	.	.	.	.	.	.
.	.	8.F\	.	8.ff\	-ca-	prze-	.	.	.	.	.	8.F\L	.	8.F\L	.	8.dd\	.	8.f\L	.	.	.	.	.	.
.	.	16G\	.	16dd\	-mi	-paść	.	.	.	.	.	16G\Jk	.	16G\Jk	.	16b-\Jk	.	16d\Jk	.	.	.	.	.	.
.	.	4A\	.	4a/	El-	prze-	.	.	.	.	.	4A\	.	4A\	.	4a/	.	4A/	.	.	.	.	.	.
.	.	8D/	.	8bn 8g/	-tus	-by-	.	.	.	.	.	4G\	.	4Bn 4D\	.	4g/	.	4BX 4G/	.	.	.	.	.	.
.	.	8D/	.	8b 8g/	.	-jesz	.	.	.	.	.	.	.	.	.	.	.	.	.	.	.	.	.	.
!!LO:PB:g=original
=13	=13	=13	=13	=13	=13	=13	=13	=13	=13	=13	=13	=13	=13	=13	=13	=13	=13	=13	=13	=13	=13	=13	=13	=13
*	*	*^	*	*	*	*	*	*	*	*	*	*	*	*^	*	*	*	*	*	*	*	*	*	*
1ryy	1ryy	2En 2C\	2ryy	.	2cc\ 2g\	bia-	chmu-	.	1ryy	1ryy	1ryy	1ryy	2C/	.	2c 2En\	2ryy	.	2g/	.	2c 2G/	.	1ryy	1ryy	1ryy	1ryy	1ryy
.	.	4F/	4F\	.	4f/	-ły	-ry	.	.	.	.	.	4F\	.	4A 4F\	4ryy	.	4f/	.	4c 4F/	.	.	.	.	.	.
.	.	4r	4ryy	.	4r	.	.	.	.	.	.	.	4F\	.	4F/	4F\	.	4r	.	4r	.	.	.	.	.	.
*	*	*	*	*	*	*	*	*	*	*	*	*	*	*	*v	*v	*	*	*	*	*	*	*	*	*	*
=14	=14	=14	=14	=14	=14	=14	=14	=14	=14	=14	=14	=14	=14	=14	=14	=14	=14	=14	=14	=14	=14	=14	=14	=14	=14
*	*	*	*	*	*^	*	*	*	*	*	*	*	*	*	*	*	*	*	*^	*	*	*	*	*	*
!	!	!	!	!LO:DY:b:rj:t=fo	!	!	!	!	!LO:DY:b:rj:t=fo	!	!	!	!	!	!	!	!	!	!	!	!	!	!	!	!	!	!
1ryy	1ryy	8B-/	4B-\	f	8dd/	4b-\	Zwie-	Wej-	f	1ryy	1ryy	1ryy	1ryy	4B-\	.	4B-\	.	1ryy	.	2d/	2d\	.	1ryy	1ryy	1ryy	1ryy	1ryy
.	.	8B-/	.	.	8dd/	.	.	.	.	.	.	.	.	.	.	.	.	.	.	.	.	.	.	.	.	.	.
.	.	8.B- 8.A\	4ryy	.	8.dd 8.b-\	4ryy	-rza	-dziesz	.	.	.	.	.	8.A\L	.	8.B-L 8.A\	.	.	.	.	.	.	.	.	.	.	.
.	.	16B- 16G\	.	.	16dd 16b-\	.	u-	w kraj	.	.	.	.	.	16G\Jk	.	16B-Jk 16G\	.	.	.	.	.	.	.	.	.	.	.
.	.	4B- 4F\	2ryy	.	4dd 4b-\	2ryy	-ga-	ci	.	.	.	.	.	4F\	.	4B- 4F\	.	.	.	4d/	4d\	.	.	.	.	.	.
.	.	8.B- 8.E-\	.	.	8.ee- 8.cc\	.	-niać	prze-	.	.	.	.	.	8.E-\L	.	8.B-L 8.E-\	.	.	.	8.e-XL 8.c/	4ryy	.	.	.	.	.	.
.	.	16B- 16D\	.	.	16ff 16dd\	.	swo-	-zna-	.	.	.	.	.	16D\Jk	.	16B-Jk 16D\	.	.	.	16fJk 16d/	.	.	.	.	.	.	.
*	*	*v	*v	*	*	*	*	*	*	*	*	*	*	*	*	*	*	*	*	*	*	*	*	*	*	*	*
=15	=15	=15	=15	=15	=15	=15	=15	=15	=15	=15	=15	=15	=15	=15	=15	=15	=15	=15	=15	=15	=15	=15	=15	=15	=15	=15
*	*	*	*	*	*	*	*	*	*	*	*	*	*	*	*^	*	*	*	*	*	*	*	*	*	*	*
!	!	!	!LO:DY:b:rj:t=ffo	!	!	!	!	!LO:DY:b:rj:t=ffo	!	!	!	!	!	!	!	!	!	!	!	!	!	!	!	!	!	!	!
1ryy	1ryy	(>2B- (<2C\	ff	(>2gg/	1ee-	-bo-	-czo-	ff	1ryy	1ryy	1ryy	1ryy	2C/	.	(>2B-/	2C\	.	1ryy	.	(>2g/	1e-X	.	1ryy	1ryy	1ryy	1ryy	1ryy
.	.	2A 2F\))	.	2ff/)	.	.	.	.	.	.	.	.	2FF/	.	2A/)	2FF\	.	.	.	2f/)	.	.	.	.	.	.	.
*	*	*	*	*	*	*	*	*	*	*	*	*	*	*	*v	*v	*	*	*	*	*	*	*	*	*	*	*
=16	=16	=16	=16	=16	=16	=16	=16	=16	=16	=16	=16	=16	=16	=16	=16	=16	=16	=16	=16	=16	=16	=16	=16	=16	=16	=16
1ryy	1ryy	4B- 4BB-\	.	4dd/	4dd\	-dnie.	-ny.	.	1ryy	1ryy	1ryy	1ryy	4BB-/	.	4d 4BB-\	.	1ryy	.	4d/	4d\	.	1ryy	1ryy	1ryy	1ryy	1ryy
.	.	4r	.	4r	4ryy	.	.	.	.	.	.	.	8.AA/L	.	8.cL 8.AA\	.	.	.	4r	4ryy	.	.	.	.	.	.
.	.	.	.	.	.	.	.	.	.	.	.	.	16GG/Jk	.	16B-Jk 16GG\	.	.	.	.	.	.	.	.	.	.	.
.	.	2r	.	2r	2ryy	.	.	.	.	.	.	.	4FF/	.	4A 4FF\	.	.	.	2r	2ryy	.	.	.	.	.	.
.	.	.	.	.	.	.	.	.	.	.	.	.	8.E-\L	.	8.GL 8.E-\	.	.	.	.	.	.	.	.	.	.	.
.	.	.	.	.	.	.	.	.	.	.	.	.	16D\Jk	.	16FJk 16D\	.	.	.	.	.	.	.	.	.	.	.
*	*	*	*	*v	*v	*	*	*	*	*	*	*	*	*	*	*	*	*	*v	*v	*	*	*	*	*	*
!!LO:PB:g=original
=17	=17	=17	=17	=17	=17	=17	=17	=17	=17	=17	=17	=17	=17	=17	=17	=17	=17	=17	=17	=17	=17	=17	=17	=17
*	*	*	*	*	*	*	*	*	*	*	*	*	*	*^	*	*	*	*	*	*	*	*	*	*
!	!	!	!	!	!	!	!	!	!	!	!	!	!LO:HP:b	!	!	!LO:HP:b	!	!	!	!LO:HP:b	!	!	!	!	!
1ryy	1ryy	1ryy	.	1ryy	.	.	.	1ryy	1ryy	1ryy	1ryy	2.C/	>	2G/	2.C\	>	1ryy	.	2e 2c/	>	1ryy	1ryy	1ryy	1ryy	1ryy
.	.	.	.	.	.	.	.	.	.	.	.	.	.	2A/	.	.	.	.	2e-X 2c/	.	.	.	.	.	.
.	.	.	.	.	.	.	.	.	.	.	.	8.GG/L	.	.	8.G\L	.	.	.	.	.	.	.	.	.	.
.	.	.	.	.	.	.	.	.	.	.	.	16FF/Jk	.	.	16F\Jk	.	.	.	.	.	.	.	.	.	.
*	*	*	*	*	*	*	*	*	*	*	*	*	*	*v	*v	*	*	*	*	*	*	*	*	*	*
=18	=18	=18	=18	=18	=18	=18	=18	=18	=18	=18	=18	=18	=18	=18	=18	=18	=18	=18	=18	=18	=18	=18	=18	=18
!LO:N:vis=1	!LO:N:vis=1	!LO:N:vis=1	!	!LO:N:vis=1	!	!	!	!LO:N:vis=1	!LO:N:vis=1	!LO:N:vis=1	!LO:N:vis=1	!	!	!	!	!LO:N:vis=1	!	!	!	!LO:N:vis=1	!LO:N:vis=1	!LO:N:vis=1	!LO:N:vis=1	!LO:N:vis=1
2.r;>	2.r;>	2.r;>	.	2.r;>	.	.	.	2.r;>	2.r;>	2.r;>	2.r;>	2.BB-;>/	]]	2.B- 2.BB-;>\	]]	2.r;>	.	2.d 2.B-;>/	]]	2.r;>	2.r;>	2.r;>	2.r;>	2.r;>
=:||	=:||	=:||	=:||	=:||	=:||	=:||	=:||	=:||	=:||	=:||	=:||	=:||	=:||	=:||	=:||	=:||	=:||	=:||	=:||	=:||	=:||	=:||	=:||	=:||
*-	*-	*-	*-	*-	*-	*-	*-	*-	*-	*-	*-	*-	*-	*-	*-	*-	*-	*-	*-	*-	*-	*-	*-	*-
!!!system-decoration: [(s1,s2,s3,s4,s5,s6,s7,s8,s9,s10)][(s11,s12,s13,s14,s15,s16,s17)]
!!!RDF**kern: > = above
!!!RDF**kern: < = below
!!!ENC: Marcin Jachim
!!!END: 2021-08-06
!!!EED: Antoni Szymański
!!!EEV: 2021-09-09
